!!!OTL: SCHLAF KINDLEIN SCHLAF
!!!ARE: Europa, Mitteleuropa, Deutschland, Taunus, Niederreifenberg
!!!SCT: K0008
!!!YEM: Copyright 1995, estate of Helmut Schaffrath.
**kern
*ICvox
*Ivox
*M2/4
*k[b-]
*F:
=1
{4cc
8b-
8g
=2
4f
8r}
{16f
16a
=3
8cc
8cc
8b-
8g
=4
4f
8r}
{16a
16g
=5
8f
8f
8cc
8cc
=6
8dd
8dd
4cc}
=7
{8b-
8g
8a
8f
=8
8g
8g
4f}
==
!!!AGN: Kinder -, Wiegen - Lied
!!!ONB: ESAC (Essen Associative Code) Database: KINDER
!!!AMT: simple duple
!!!AIN: vox
!!!EED: Helmut Schaffrath
!!!EEV: 1.0
*-
